X:111
T: Ich war ein rechter Faselhans (1-37), S. 96f
N: K1085
O: Luxemburg
S: KINTZELE, Guillaume: An der Ucht, Bd. 1, Luxemburg 1926]
N: in der Quelle mit einer 2. Stimme versehen
R: Spaá-, Spottlied]
M: 2/4
L: 1/16
K: F
C2 | F2F2F2F2 | E2F2G2C2 | G2G2F2G2 | A4z2
C2 | F2G2A2F2 | D2D2D2D2 | B2G2E2G2 | F4z2
c2 | =B2G2G2d2 | c2G2G2c2 | =B2c2f2d2 | c4z2
B2 | A2A2B2A2 | B2c2d2d2 | c2B2G2E2 | c4z2
c2 | B2G2E2C2 | A4z2A2 | G2F2E2G2 | F4z2
AB | c2c2c2f2 | c4z2AA | B2B2G2G2 | A4z2
AB | c2c2c2f2 | c4z2AA | B2B2G2c2 | F4z2

